icons/global/user-settings/authorized-apps.svg

<svg width="24" height="24" viewBox="0 0 24 24" fill="none" xmlns="http://www.w3.org/2000/svg">
<path d="M17 11V7C17 4.243 14.756 2 12 2C9.242 2 7 4.243 7 7V11C5.897 11 5 11.896 5 13V20C5 21.103 5.897 22 7 22H17C18.103 22 19 21.103 19 20V13C19 11.896 18.103 11 17 11ZM12 18C11.602 17.9999 11.2204 17.8417 10.9391 17.5602C10.6578 17.2787 10.4999 16.897 10.5 16.499C10.5001 16.101 10.6583 15.7194 10.9398 15.4381C11.2213 15.1568 11.603 14.9989 12.001 14.999C12.399 14.9991 12.7806 15.1573 13.0619 15.4388C13.3432 15.7203 13.5011 16.102 13.501 16.5C13.5009 16.898 13.3427 17.2796 13.0612 17.5609C12.7797 17.8422 12.398 18.0001 12 18ZM15 11H9V7C9 5.346 10.346 4 12 4C13.654 4 15 5.346 15 7V11Z" fill="black"/>
</svg>

<svg xmlns="http://www.w3.org/2000/svg" width="24" height="24" fill="none">
  <path fill="#000" d="M17 11V7c0-2.757-2.244-5-5-5-2.758 0-5 2.243-5 5v4c-1.103 0-2 .896-2 2v7c0 1.103.897 2 2 2h10c1.103 0 2-.897 2-2v-7c0-1.104-.897-2-2-2Zm-5 7a1.5 1.5 0 1 1 0-3 1.5 1.5 0 0 1 0 3Zm3-7H9V7c0-1.654 1.346-3 3-3s3 1.346 3 3v4Z"/>
</svg>
